X: 15
T:Rights of Man
R:hornpipe
C:KCC p27
S:Nottingham Music Database
M:4/4
L:1/8
K:Em
GA|BcAB GAFG|EFGA B2ef|gfed edBd|cBAG A2GA|
BcAB GAFG|EFGA B2ef|gfed Bgf<g|e2E2 E2:|
ga|b^abg efga|b^abg e2fe|d^cde fefg|afdf a2gf|
eBeg fdfa|gfga b2ef|gfed Bgf<g|e2E2 E2:|

